packages/foundations/assets/icons/functional/images/security/lock_closed_14.svg

<svg width="14" height="14" viewBox="0 0 14 14" fill="none" xmlns="http://www.w3.org/2000/svg">
<g clip-path="url(#clip0_187_247)">
<path fill-rule="evenodd" clip-rule="evenodd" d="M7.00005 1.75601C8.49959 1.75601 9.79653 2.97581 9.80005 4.55601C9.80109 5.02266 9.80005 5.25601 9.80005 5.25601C10.5732 5.25601 11.2 5.88281 11.2 6.65601V10.844C11.2 11.6172 10.5732 12.244 9.80005 12.244H4.20005C3.42685 12.244 2.80005 11.6172 2.80005 10.844V6.65601C2.80005 5.88281 3.42685 5.25601 4.20005 5.25601V4.55601C4.20005 3.00961 5.45365 1.75601 7.00005 1.75601ZM9.80005 6.65601H4.20005V10.844H9.80005V6.65601ZM7.00005 7.344C7.35903 7.344 7.6549 7.61422 7.69534 7.96236L7.70005 8.044V9.44056C7.70005 9.82716 7.38665 10.1406 7.00005 10.1406C6.64106 10.1406 6.34519 9.87034 6.30476 9.5222L6.30005 9.44056V8.044C6.30005 7.6574 6.61345 7.344 7.00005 7.344ZM7.00005 3.15601C6.262 3.15601 5.60211 3.75021 5.60005 4.55601C5.59886 5.02266 5.60005 5.25601 5.60005 5.25601H8.40005V4.55601C8.40005 3.78281 7.77325 3.15601 7.00005 3.15601Z" fill="#1A1C1F"/>
</g>
<defs>
<clipPath id="clip0_187_247">
<rect width="14" height="14" fill="white"/>
</clipPath>
</defs>
</svg>

<svg xmlns="http://www.w3.org/2000/svg" width="14" height="14" fill="none"><g clip-path="url(#a)"><path fill="#1A1C1F" fill-rule="evenodd" d="M7 1.756a2.81 2.81 0 0 1 2.8 2.8v.7a1.4 1.4 0 0 1 1.4 1.4v4.188a1.4 1.4 0 0 1-1.4 1.4H4.2a1.4 1.4 0 0 1-1.4-1.4V6.656a1.4 1.4 0 0 1 1.4-1.4v-.7a2.8 2.8 0 0 1 2.8-2.8m2.8 4.9H4.2v4.188h5.6zM7 7.344a.7.7 0 0 1 .695.618l.005.082v1.397a.7.7 0 0 1-1.395.081L6.3 9.441V8.044a.7.7 0 0 1 .7-.7m0-4.188c-.738 0-1.398.594-1.4 1.4v.7h2.8v-.7a1.4 1.4 0 0 0-1.4-1.4" clip-rule="evenodd"/></g><defs><clipPath id="a"><path fill="#fff" d="M0 0h14v14H0z"/></clipPath></defs></svg>
